src/icons/main-folder-new.svg

<?xml version="1.0" encoding="UTF-8"?>
<svg width="14px" height="13px" viewBox="0 0 14 13" version="1.1" xmlns="http://www.w3.org/2000/svg" xmlns:xlink="http://www.w3.org/1999/xlink">
    <!-- Generator: Sketch 59 (86127) - https://sketch.com -->
    <title>HDL/Icon/Standard/folder_new</title>
    <desc>Created with Sketch.</desc>
    <g id="Colors" stroke="none" stroke-width="1" fill="none" fill-rule="evenodd">
        <g id="Main-Icons" transform="translate(-1121.000000, -266.000000)" fill="#4D5969">
            <g id="Folder-New" transform="translate(1100.000000, 251.000000)">
                <g id="HDL/Icon/Standard/folder_new" transform="translate(21.000000, 15.000000)">
                    <path d="M9.09545224,5.05555556 C9.09545224,6.25052242 10.036783,7.22222222 11.1944028,7.22222222 C12.3520226,7.22222222 13.2933533,6.25052242 13.2933533,5.05555556 L14,5.05555556 L14,12.2777778 C14,12.675 13.6851574,13 13.3003499,13 L0.706646675,13 C0.32183908,13 0.00699650175,12.675 0.00699650175,12.2777778 L0.00699650175,5.05555556 L9.09545224,5.05555556 Z M7.53208575,4.33333333 L0,4.33333333 L0,2.16666667 C0,1.76944444 0.314842578,1.44444444 0.699650175,1.44444444 L3.49825087,1.44444444 C3.69415292,1.44444444 3.86906547,1.52388889 3.9950025,1.65388889 L5.19140429,2.88888889 L6.99650175,2.88888889 C6.99650175,3.44336437 7.19917436,3.94976946 7.53208575,4.33333333 Z M13.2933533,2.16666667 C13.6781609,2.16666667 13.9930035,2.49166667 13.9930035,2.88888889 C13.9930035,3.28611111 13.6781609,3.61111111 13.2933533,3.61111111 L11.8940529,3.61111111 L11.8940529,5.05555556 C11.8940529,5.45277778 11.5792104,5.77777778 11.1944028,5.77777778 C10.8095952,5.77777778 10.4947526,5.45277778 10.4947526,5.05555556 L10.4947526,3.61111111 L9.09545224,3.61111111 C8.71064467,3.61111111 8.3958021,3.28611111 8.3958021,2.88888889 C8.3958021,2.49166667 8.71064467,2.16666667 9.09545224,2.16666667 L10.4947526,2.16666667 L10.4947526,0.722222222 C10.4947526,0.325 10.8095952,0 11.1944028,0 C11.5792104,0 11.8940529,0.325 11.8940529,0.722222222 L11.8940529,2.16666667 L13.2933533,2.16666667 Z" id="Combined-Shape"></path>
                </g>
            </g>
        </g>
    </g>
</svg>

<?xml version="1.0" encoding="utf-8"?>
<!-- Generator: Adobe Illustrator 20.1.0, SVG Export Plug-In . SVG Version: 6.00 Build 0)  -->
<svg version="1.1" id="Layer_1" xmlns="http://www.w3.org/2000/svg" xmlns:xlink="http://www.w3.org/1999/xlink" x="0px" y="0px"
	 viewBox="0 0 14 13" style="enable-background:new 0 0 14 13;" xml:space="preserve">
<style type="text/css">
	.st0{fill:#4D5969;}
</style>
<title>HDL/Icon/Standard/folder_new</title>
<desc>Created with Sketch.</desc>
<g id="Colors">
	<g id="Main-Icons" transform="translate(-1121.000000, -266.000000)">
		<g id="Folder-New" transform="translate(1100.000000, 251.000000)">
			<g id="HDL_x2F_Icon_x2F_Standard_x2F_folder_x5F_new" transform="translate(21.000000, 15.000000)">
				<path id="Combined-Shape" class="st0" d="M9.1,5.1c0,1.2,0.9,2.2,2.1,2.2s2.1-1,2.1-2.2H14v7.2c0,0.4-0.3,0.7-0.7,0.7H0.7
					C0.3,13,0,12.7,0,12.3V5.1H9.1z M7.5,4.3H0V2.2c0-0.4,0.3-0.7,0.7-0.7h2.8c0.2,0,0.4,0.1,0.5,0.2l1.2,1.2H7
					C7,3.4,7.2,3.9,7.5,4.3z M13.3,2.2c0.4,0,0.7,0.3,0.7,0.7s-0.3,0.7-0.7,0.7h-1.4v1.4c0,0.4-0.3,0.7-0.7,0.7s-0.7-0.3-0.7-0.7
					V3.6H9.1c-0.4,0-0.7-0.3-0.7-0.7s0.3-0.7,0.7-0.7h1.4V0.7c0-0.4,0.3-0.7,0.7-0.7s0.7,0.3,0.7,0.7v1.4H13.3z"/>
			</g>
		</g>
	</g>
</g>
</svg>
